**kern	**kern	**dynam
*part1	*part1	*part1
*staff2	*staff1	*
*I"Piano	*	*
*clefF4	*clefG2	*
*k[b-e-a-]	*k[b-e-a-]	*
*M4/4	*M4/4	*
*met(c)	*met(c)	*
=1	=1	=1
4r	4r	.
=	=	=
*^	*	*
4BBn	4G	4d 4f	p
4C	4G	4c 4e-	.
4F	4G 4Bn	4d	.
4E-	4G	4c	.
=	=	=	=
4G	4GG	4c 4e-	.
4G 4Bn	4GG	4d	.
2r	2ryy	2r	.
=	=	=	=
4BBn	4G	4d 4f	.
4C	4G	4c 4e-	.
4F	4G 4Bn	4d	.
4E-	4G	4c	.
=	=	=	=
4G	4GG	4c 4e-	.
4G 4Bn	4GG	4d	.
2r	2ryy	2r	.
=	=	=	=
4G	4C	4c 4e-	.
4G	4C	4c 4e-	.
4An	4FF	4c 4f	.
4A	4FF	4c 4f	.
=	=	=	=
4F 4B-X	4BB-	4d	.
4F 4B-	4BB-	4d	.
4B-	4En	4d-X 4g	.
4B-	4E	4d- 4g	.
*v	*v	*	*
=	=	=
*-	*-	*-
!!!system-decoration: {(s1,s2)}
